!!!COM: Gioseffo Zarlino
!!!OPR: Le istitutioni harmoniche
!!!OTL: Sixth way (2nd example), canon at the fifth below after a minim. CF lowest voice.
!!!PPR: Francesco Senese
!!!PDT: 1573
!!!PPP: Venice
!!!ONB: Reprint ed., New York: Broude Bros., 1965. ch. 63, p.311.
!!!ONB: Transcribed from Gioseffo Zarlino, Le Istitutioni Harmoniche, 1573,
**kern	**kern	**kern
*k[]	*k[]	*k[]
*M4/4	*M4/4	*M4/4
*CF	*conseq	*guida
=1	=1	=1
1G	2r	2.dd
.	[2g	.
.	.	8cc
.	.	8b
=2	=2	=2
1A	4g]	1cc
.	8f	.
.	8e	.
.	[2f	.
=3	=3	=3
{1G	2f]	2b
.	2e	4cc
.	.	4b
=4	=4	=4
1F}	4f	4a
.	4e	4g
.	4d	4f
.	4c	4e
=5	=5	=5
1G	4B	2d
.	4A	.
.	2G	[2g
=6	=6	=6
{1A	1c	2g]
.	.	[2f
=7	=7	=7
1G}	1B	2f]
.	.	4e
.	.	4d
=8	=8	=8
1c	4A	2e
.	4G	.
.	2A	[2f
=9	=9	=9
1d	2.B	4f]
.	.	4d
.	.	2g
.	4G	.
=10	=10	=10
1c	2c	1e
.	[2A	.
=11	=11	=11
1c	2A]	2e
.	2A	2f
=12	=12	=12
1G	2B	2d
.	2G	2g
=13	=13	=13
1A	2c	2e
.	2A	2e
=14	=14	=14
1c	2A	4ee
.	.	4dd
.	4a	4cc
.	4g	4b
=15	=15	=15
{1d	4f	2a
.	4e	.
.	2d	2dd
=16	=16	=16
1c}	2g	4r
.	.	4g
.	4r	2cc
.	4c	.
=17	=17	=17
1d	2f	2a
.	2d	2dd
=18	=18	=18
1e	2g	4cc
.	.	4b
.	4f	[2cc
.	4e	.
=19	=19	=19
1d	1f	2cc]
.	.	2b
=20	=20	=20
1c	2e	4ee
.	.	4dd
.	4a	4cc
.	4g	4b
=21	=21	=21
{1d	4f	2a
.	4e	.
.	2d	2dd
=22	=22	=22
1e}	2g	2.b
.	[2e	.
.	.	4g
=23	=23	=23
{1c	4e]	4g
.	4c	4e
.	4c	[2a
.	4A	.
=24	=24	=24
1B}	1d	2a]
.	.	2g
=25	=25	=25
{1A	2c	2cc
.	2f	4b
.	.	4a
=26	=26	=26
1G}	4e	1b
.	4d	.
.	[2e	.
=27	=27	=27
{1c	2e]	2e
.	2A	2cc
=28	=28	=28
1d}	2f	2a
.	2d	2a
=29	=29	=29
1G	2d	4b
.	.	4a
.	4e	4g
.	4d	4f
=30	=30	=30
1A	4c	1e
.	4B	.
.	[2A	.
=31	=31	=31
1c	2A]	1ee
.	[2a	.
=32	=32	=32
{1B	2a]	1dd
.	[2g	.
=33	=33	=33
1c}	2g]	1g
.	[2c	.
=34	=34	=34
{1A	2c]	1cc
.	[2f	.
=35	=35	=35
1G}	2f]	2b
.	2e	2cc
=36	=36	=36
1F	2f	2a
.	2d	4g
.	.	4f
=37	=37	=37
{1A	4c	2e
.	4B	.
.	2A	[2a
=38	=38	=38
1B-}	1d	2a]
.	.	2g
=39	=39	=39
1A	2c	1cc
.	[2f	.
=40	=40	=40
{1G	2f]	2b
.	2e	4cc
.	.	4b
=41	=41	=41
1F}	4f	4a
.	4e	4g
.	4d	4f
.	4c	4e
=42	=42	=42
1G	4B	2d
.	4A	.
.	2G	2dd
=43	=43	=43
1G	1g	1b
==	==	==
*-	*-	*-
!!!CDT: 1517/3/22-1590/2/14
!!!CNT: Italia
!!!ODT: <1573//
!!!YEP: David Huron and Denis Collins
!!!YEN: Canada
!!!AIN: vox; ?
!!!AST: polyphony
!!!RDT: 1995 July 3
!!!YED: 1995 August 31
!!!AFR: cantus firmus canon
!!!AMT: simple quadruple
!!!EEV: 1.0
